recipes/msteams/icon.svg

<svg viewBox="0 0 32 32" xmlns="http://www.w3.org/2000/svg"><circle cx="17" cy="6" fill="#7b83eb" r="4.667"/><path d="m16.66663 7h-4.22553q.01017.04669.0213.09326l.00189.00781c.00684.02857.0141.05707.02143.08551a4.671 4.671 0 0 0 5.51428 3.37226v-2.22553a1.33727 1.33727 0 0 0 -1.33337-1.33331z" opacity=".1"/><path d="m15.66663 8h-2.88392a4.667 4.667 0 0 0 4.21729 2.66663v-1.33332a1.33727 1.33727 0 0 0 -1.33337-1.33331z" opacity=".2"/><circle cx="27.5" cy="7.5" fill="#5059c9" r="3.5"/><path d="m30.49976 12h-7.86094a.63906.63906 0 0 0 -.63906.63906v8.11026a5.12132 5.12132 0 0 0 3.96624 5.08458 5.00551 5.00551 0 0 0 6.03372-4.89636v-7.43754a1.5 1.5 0 0 0 -1.49996-1.5z" fill="#5059c9"/><path d="m25 13.5v9.5a7.99479 7.99479 0 0 1 -14.92 4 7.17277 7.17277 0 0 1 -.5-1 8.36694 8.36694 0 0 1 -.33-1 8.24022 8.24022 0 0 1 -.25-2v-9.5a1.498 1.498 0 0 1 1.5-1.5h13a1.498 1.498 0 0 1 1.5 1.5z" fill="#7b83eb"/><path d="m15.66663 8h-2.88392a4.667 4.667 0 0 0 4.21729 2.66663v-1.33332a1.33727 1.33727 0 0 0 -1.33337-1.33331z" opacity=".2"/><path d="m18 12v12.67a1.32024 1.32024 0 0 1 -1.04 1.29.966.966 0 0 1 -.29.04h-7.09a8.36694 8.36694 0 0 1 -.33-1 8.24022 8.24022 0 0 1 -.25-2v-9.5a1.498 1.498 0 0 1 1.5-1.5z" opacity=".1"/><path d="m17 12v13.67a.96746.96746 0 0 1 -.04.29 1.3203 1.3203 0 0 1 -1.29 1.04h-5.59a7.17277 7.17277 0 0 1 -.5-1 8.36694 8.36694 0 0 1 -.33-1 8.24022 8.24022 0 0 1 -.25-2v-9.5a1.498 1.498 0 0 1 1.5-1.5z" opacity=".2"/><path d="m17 12v11.67a1.33588 1.33588 0 0 1 -1.33 1.33h-6.42a8.24022 8.24022 0 0 1 -.25-2v-9.5a1.498 1.498 0 0 1 1.5-1.5z" opacity=".2"/><path d="m10.5 12a1.498 1.498 0 0 0 -1.5 1.5v9.5a8.24022 8.24022 0 0 0 .25 2h5.42a1.33588 1.33588 0 0 0 1.33-1.33v-11.67z" opacity=".2"/><path d="m1.33334 8h13.33336a1.33333 1.33333 0 0 1 1.3333 1.33333v13.33333a1.33333 1.33333 0 0 1 -1.3333 1.33334h-13.33336a1.33334 1.33334 0 0 1 -1.33334-1.33334v-13.33332a1.33334 1.33334 0 0 1 1.33334-1.33334z" fill="#4b53bc"/><path d="m11.97961 12.975h-2.9888v8.0203h-1.96427v-8.0203h-3.00612v-1.97034h7.95919z" fill="#fff"/><path d="m0 0h32v32h-32z" fill="none"/></svg>

<svg viewBox="0 0 32 32" xmlns="http://www.w3.org/2000/svg"><circle cx="17" cy="6" fill="#7b83eb" r="4.667"/><path d="M16.667 7H12.44l.021.093.002.008.022.086A4.671 4.671 0 0 0 18 10.559V8.333A1.337 1.337 0 0 0 16.667 7z" opacity=".1"/><path d="M15.667 8h-2.884A4.667 4.667 0 0 0 17 10.667V9.333A1.337 1.337 0 0 0 15.667 8z" opacity=".2"/><circle cx="27.5" cy="7.5" fill="#5059c9" r="3.5"/><path d="M30.5 12h-7.861a.64.64 0 0 0-.64.64v8.11a5.121 5.121 0 0 0 3.967 5.084A5.006 5.006 0 0 0 32 20.938V13.5a1.5 1.5 0 0 0-1.5-1.5z" fill="#5059c9"/><path d="M25 13.5V23a7.995 7.995 0 0 1-14.92 4 7.173 7.173 0 0 1-.5-1 8.367 8.367 0 0 1-.33-1A8.24 8.24 0 0 1 9 23v-9.5a1.498 1.498 0 0 1 1.5-1.5h13a1.498 1.498 0 0 1 1.5 1.5z" fill="#7b83eb"/><path d="M15.667 8h-2.884A4.667 4.667 0 0 0 17 10.667V9.333A1.337 1.337 0 0 0 15.667 8z" opacity=".2"/><path d="M18 12v12.67a1.32 1.32 0 0 1-1.04 1.29.966.966 0 0 1-.29.04H9.58a8.367 8.367 0 0 1-.33-1A8.24 8.24 0 0 1 9 23v-9.5a1.498 1.498 0 0 1 1.5-1.5z" opacity=".1"/><path d="M17 12v13.67a.967.967 0 0 1-.04.29A1.32 1.32 0 0 1 15.67 27h-5.59a7.173 7.173 0 0 1-.5-1 8.367 8.367 0 0 1-.33-1A8.24 8.24 0 0 1 9 23v-9.5a1.498 1.498 0 0 1 1.5-1.5z" opacity=".2"/><path d="M17 12v11.67A1.336 1.336 0 0 1 15.67 25H9.25A8.24 8.24 0 0 1 9 23v-9.5a1.498 1.498 0 0 1 1.5-1.5z" opacity=".2"/><path d="M10.5 12A1.498 1.498 0 0 0 9 13.5V23a8.24 8.24 0 0 0 .25 2h5.42A1.336 1.336 0 0 0 16 23.67V12z" opacity=".2"/><path d="M1.333 8h13.334A1.333 1.333 0 0 1 16 9.333v13.334A1.333 1.333 0 0 1 14.667 24H1.333A1.333 1.333 0 0 1 0 22.667V9.333A1.333 1.333 0 0 1 1.333 8z" fill="#4b53bc"/><path d="M11.98 12.975H8.99v8.02H7.028v-8.02H4.02v-1.97h7.96z" fill="#fff"/><path d="M0 0h32v32H0z" fill="none"/></svg>
